; HEADER_BLOCK_START
; generated by OrcaSlicer 2.3.1 on 2025-11-20 at 15:29:15
; total layer number: 3
; filament_density: 1.24
; filament_diameter: 1.75
; max_z_height: 0.60
; HEADER_BLOCK_END

; THUMBNAIL_BLOCK_START

;
; THUMBNAIL_BLOCK_END

; THUMBNAIL_BLOCK_START

;
; THUMBNAIL_BLOCK_END

; external perimeters extrusion width = 0.42mm
; perimeters extrusion width = 0.45mm
; infill extrusion width = 0.45mm
; solid infill extrusion width = 0.42mm
; top infill extrusion width = 0.42mm
; first layer extrusion width = 0.50mm

; EXECUTABLE_BLOCK_START
EXCLUDE_OBJECT_DEFINE NAME=Cube_id_0_copy_0 CENTER=0,-20 POLYGON=[[-5,-25],[5,-25],[5,-15],[-5,-15],[-5,-25]]
M73 P0 R0
M106 S0
M106 P2 S0
;TYPE:Custom
SET_PRINT_STATS_INFO TOTAL_LAYER=3 CURRENT_LAYER=0

START_PRINT EXTRUDER_TEMP=220 BED_TEMP=55 Chamber=0 PRINT_MIN=-7,-27 PRINT_MAX=7,-13 FORCE_LEVELING=true
G90
G21
M83 ; use relative distances for extrusion
; filament start gcode
;right_extruder_material: PLA
SET_PRESSURE_ADVANCE ADVANCE=0.025; Override pressure advance value
M106 S0
M106 P2 S0
;LAYER_CHANGE
;Z:0.2
;HEIGHT:0.2
;BEFORE_LAYER_CHANGE
;0.2
G1 E-.8 F2100
TIMELAPSE_TAKE_FRAME
;AFTER_LAYER_CHANGE
;0.2
SET_PRINT_STATS_INFO CURRENT_LAYER=1
M117 Layer 1/3 : Flashforge Generic PLA
;_SET_FAN_SPEED_CHANGING_LAYER
SET_VELOCITY_LIMIT ACCEL=500
; printing object Cube id:0 copy 0
EXCLUDE_OBJECT_START NAME=Cube_id_0_copy_0
G1 X4.1 Y-15.9 F30000
G1 Z.6
M73 P1 R0
G1 Z.2
G1 E.8 F2100
M73 P2 R0
;TYPE:Inner wall
;WIDTH:0.5
G1 F2101
G1 X-4.1 Y-15.9 E.30542
G1 X-4.1 Y-24.1 E.30542
M73 P3 R0
G1 X4.1 Y-24.1 E.30542
M73 P4 R0
G1 X4.1 Y-15.94 E.30393
M73 P5 R0
G1 X4.6 Y-15.4 F30000
M73 P7 R0
;TYPE:Outer wall
G1 F2101
G1 X-4.6 Y-15.4 E.34267
G1 X-4.6 Y-24.6 E.34267
M73 P8 R0
G1 X4.6 Y-24.6 E.34267
M73 P10 R0
G1 X4.6 Y-15.44 E.34118
M73 P11 R0
G1 E-.8 F2100
M73 P12 R0
;WIPE_START
G1 F3000
M73 P13 R0
G1 X2.6 Y-15.431
;WIPE_END
G1 X2.968 Y-23.055 Z.6 F30000
G1 X3.012 Y-23.963 Z.6
M73 P14 R0
G1 Z.2
G1 E.8 F2100
;TYPE:Bottom surface
;WIDTH:0.512642
G1 F2101
G1 X3.757 Y-23.218 E.04033
G1 X3.757 Y-22.553 E.02543
M73 P15 R0
G1 X2.553 Y-23.757 E.06516
G1 X1.889 Y-23.757 E.02543
G1 X3.757 Y-21.889 E.10112
M73 P16 R0
G1 X3.757 Y-21.225 E.02543
G1 X1.225 Y-23.757 E.13708
G1 X.561 Y-23.757 E.02543
M73 P17 R0
G1 X3.757 Y-20.561 E.17303
G1 X3.757 Y-19.896 E.02543
M73 P18 R0
G1 X-.104 Y-23.757 E.20899
G1 X-.768 Y-23.757 E.02543
M73 P19 R0
G1 X3.757 Y-19.232 E.24495
G1 X3.757 Y-18.568 E.02543
M73 P20 R0
G1 X-1.432 Y-23.757 E.28091
G1 X-2.097 Y-23.757 E.02543
M73 P21 R0
G1 X3.757 Y-17.903 E.31687
G1 X3.757 Y-17.239 E.02543
M73 P23 R0
G1 X-2.761 Y-23.757 E.35283
G1 X-3.425 Y-23.757 E.02543
M73 P24 R0
G1 X3.757 Y-16.575 E.38878
G1 X3.757 Y-16.243 E.01271
M73 P26 R0
G1 X3.425 Y-16.243 E.01272
G1 X-3.757 Y-23.425 E.38878
G1 X-3.757 Y-22.761 E.02543
M73 P27 R0
G1 X2.761 Y-16.243 E.35282
M73 P28 R0
G1 X2.096 Y-16.243 E.02543
M73 P29 R0
G1 X-3.757 Y-22.096 E.31686
G1 X-3.757 Y-21.432 E.02543
M73 P30 R0
G1 X1.432 Y-16.243 E.2809
M73 P31 R0
G1 X.768 Y-16.243 E.02543
M73 P32 R0
G1 X-3.757 Y-20.768 E.24494
G1 X-3.757 Y-20.104 E.02543
M73 P33 R0
G1 X.104 Y-16.243 E.20899
G1 X-.561 Y-16.243 E.02543
M73 P34 R0
G1 X-3.757 Y-19.439 E.17303
G1 X-3.757 Y-18.775 E.02543
M73 P35 R0
G1 X-1.225 Y-16.243 E.13707
G1 X-1.889 Y-16.243 E.02543
M73 P36 R0
G1 X-3.757 Y-18.111 E.10111
G1 X-3.757 Y-17.446 E.02543
G1 X-2.554 Y-16.243 E.06515
G1 X-3.218 Y-16.243 E.02543
M73 P37 R0
G1 X-3.963 Y-16.988 E.04033
; stop printing object Cube id:0 copy 0
M106 S255
M106 P2 S255
;LAYER_CHANGE
;Z:0.4
;HEIGHT:0.2
;BEFORE_LAYER_CHANGE
;0.4
G1 E-.8 F2100
;WIPE_START
G1 F4800
G1 X-3.218 Y-16.243
G1 X-2.554 Y-16.243
M73 P38 R0
G1 X-2.753 Y-16.442
;WIPE_END
EXCLUDE_OBJECT_END NAME=Cube_id_0_copy_0
TIMELAPSE_TAKE_FRAME
;AFTER_LAYER_CHANGE
;0.4
SET_PRINT_STATS_INFO CURRENT_LAYER=2
M117 Layer 2/3 : Flashforge Generic PLA
;_SET_FAN_SPEED_CHANGING_LAYER
SET_VELOCITY_LIMIT ACCEL=10000
M140 S50 ; set bed temperature
; printing object Cube id:0 copy 0
EXCLUDE_OBJECT_START NAME=Cube_id_0_copy_0
G17
G3 Z.8 I-.136 J1.209 P1  F30000
G1 X4.355 Y-15.645 Z.8
G1 Z.4
M73 P39 R0
G1 E.8 F2100
SET_VELOCITY_LIMIT ACCEL=5000
;TYPE:Inner wall
;WIDTH:0.45
G1 F2734
G1 X-4.355 Y-15.645 E.28893
G1 X-4.355 Y-24.355 E.28893
M73 P40 R0
G1 X4.355 Y-24.355 E.28893
M73 P41 R0
G1 X4.355 Y-15.685 E.2876
M73 P42 R0
SET_VELOCITY_LIMIT ACCEL=10000
G1 X4.79 Y-15.21 F30000
SET_VELOCITY_LIMIT ACCEL=5000
;TYPE:Outer wall
;WIDTH:0.42
G1 F2734
M73 P43 R0
G1 X-4.79 Y-15.21 E.29437
G1 X-4.79 Y-24.79 E.29437
M73 P44 R0
G1 X4.79 Y-24.79 E.29437
G1 X4.79 Y-15.25 E.29314
M73 P45 R0
SET_VELOCITY_LIMIT ACCEL=10000
G1 E-.8 F2100
M73 P46 R0
;WIPE_START
G1 F12000
M73 P47 R0
G1 X2.79 Y-15.242
;WIPE_END
G1 X2.988 Y-16.112 Z.8 F30000
G1 Z.4
G1 E.8 F2100
SET_VELOCITY_LIMIT ACCEL=7000
;TYPE:Internal solid infill
;WIDTH:0.570047
G1 F2734
G1 X3.888 Y-16.112 E.03865
G1 X3.888 Y-17.012 E.03865
G1 X3.016 Y-16.14 E.05295
SET_VELOCITY_LIMIT ACCEL=10000
G1 X1.959 Y-15.671 F30000
M73 P48 R0
SET_VELOCITY_LIMIT ACCEL=7000
;WIDTH:0.422792
G1 F2734
G1 X4.159 Y-17.871 E.0963
G1 X4.159 Y-18.408 E.01663
G1 X1.592 Y-15.841 E.11239
G1 X1.054 Y-15.841 E.01663
G1 X4.159 Y-18.946 E.1359
M73 P49 R0
G1 X4.159 Y-19.483 E.01663
G1 X.517 Y-15.841 E.15942
G1 X-.02 Y-15.841 E.01663
M73 P50 R0
G1 X4.159 Y-20.02 E.18294
G1 X4.159 Y-20.557 E.01663
G1 X-.557 Y-15.841 E.20646
G1 X-1.094 Y-15.841 E.01663
M73 P51 R0
G1 X4.159 Y-21.094 E.22998
G1 X4.159 Y-21.632 E.01663
M73 P52 R0
G1 X-1.632 Y-15.841 E.25349
G1 X-2.169 Y-15.841 E.01663
M73 P53 R0
G1 X4.159 Y-22.169 E.27701
G1 X4.159 Y-22.706 E.01663
M73 P54 R0
G1 X-2.706 Y-15.841 E.30053
G1 X-3.243 Y-15.841 E.01663
M73 P55 R0
G1 X4.159 Y-23.243 E.32405
G1 X4.159 Y-23.781 E.01663
M73 P56 R0
G1 X-3.781 Y-15.841 E.34756
G1 X-4.159 Y-15.841 E.01171
M73 P57 R0
G1 X-4.159 Y-16 E.00492
G1 X4 Y-24.159 E.35718
G1 X3.463 Y-24.159 E.01663
M73 P58 R0
G1 X-4.159 Y-16.537 E.33366
G1 X-4.159 Y-17.074 E.01663
M73 P59 R0
G1 X2.926 Y-24.159 E.31014
G1 X2.389 Y-24.159 E.01663
M73 P60 R0
G1 X-4.159 Y-17.611 E.28663
M73 P61 R0
G1 X-4.159 Y-18.149 E.01663
G1 X1.851 Y-24.159 E.26311
M73 P62 R0
G1 X1.314 Y-24.159 E.01663
G1 X-4.159 Y-18.686 E.23959
G1 X-4.159 Y-19.223 E.01663
M73 P63 R0
G1 X.777 Y-24.159 E.21607
G1 X.24 Y-24.159 E.01663
M73 P64 R0
G1 X-4.159 Y-19.76 E.19256
G1 X-4.159 Y-20.298 E.01663
M73 P65 R0
G1 X-.298 Y-24.159 E.16904
G1 X-.835 Y-24.159 E.01663
G1 X-4.159 Y-20.835 E.14552
G1 X-4.159 Y-21.372 E.01663
M73 P66 R0
G1 X-1.372 Y-24.159 E.122
G1 X-1.909 Y-24.159 E.01663
G1 X-4.159 Y-21.909 E.09849
G1 X-4.159 Y-22.446 E.01663
M73 P67 R0
G1 X-2.446 Y-24.159 E.07497
G1 X-2.984 Y-24.159 E.01663
G1 X-4.159 Y-22.984 E.05145
G1 X-4.159 Y-23.521 E.01663
G1 X-3.351 Y-24.329 E.03536
SET_VELOCITY_LIMIT ACCEL=10000
G1 X-4.011 Y-24.069 F30000
M73 P68 R0
SET_VELOCITY_LIMIT ACCEL=7000
;WIDTH:0.38292
G1 F2734
G1 X-4.075 Y-24.032 E.00204
G1 X-4.01 Y-23.997 E.00204
; stop printing object Cube id:0 copy 0
;LAYER_CHANGE
;Z:0.6
;HEIGHT:0.2
;BEFORE_LAYER_CHANGE
;0.6
G1 E-.8 F2100
;WIPE_START
G1 F15000
G1 X-4.075 Y-24.032
G1 X-4.011 Y-24.069
;WIPE_END
EXCLUDE_OBJECT_END NAME=Cube_id_0_copy_0
TIMELAPSE_TAKE_FRAME
;AFTER_LAYER_CHANGE
;0.6
SET_PRINT_STATS_INFO CURRENT_LAYER=3
M117 Layer 3/3 : Flashforge Generic PLA
;_SET_FAN_SPEED_CHANGING_LAYER
; printing object Cube id:0 copy 0
SET_VELOCITY_LIMIT ACCEL=10000
EXCLUDE_OBJECT_START NAME=Cube_id_0_copy_0
G17
G3 Z1 I-.863 J.858 P1  F30000
G1 X4.355 Y-15.645 Z1
G1 Z.6
M73 P69 R0
G1 E.8 F2100
SET_VELOCITY_LIMIT ACCEL=5000
;TYPE:Inner wall
;WIDTH:0.45
G1 F2696
G1 X-4.355 Y-15.645 E.28893
G1 X-4.355 Y-24.355 E.28893
M73 P70 R0
G1 X4.355 Y-24.355 E.28893
M73 P71 R0
G1 X4.355 Y-15.685 E.2876
M73 P72 R0
SET_VELOCITY_LIMIT ACCEL=10000
G1 X4.79 Y-15.21 F30000
SET_VELOCITY_LIMIT ACCEL=5000
;TYPE:Outer wall
;WIDTH:0.42
G1 F2696
M73 P73 R0
G1 X-4.79 Y-15.21 E.29437
G1 X-4.79 Y-24.79 E.29437
G1 X4.79 Y-24.79 E.29437
M73 P74 R0
G1 X4.79 Y-15.25 E.29314
M73 P75 R0
SET_VELOCITY_LIMIT ACCEL=10000
G1 E-.8 F2100
M73 P76 R0
;WIPE_START
G1 F12000
M73 P77 R0
G1 X2.79 Y-15.242
;WIPE_END
G1 X4.11 Y-22.759 Z1 F30000
G1 X4.231 Y-23.446 Z1
G1 Z.6
G1 E.8 F2100
SET_VELOCITY_LIMIT ACCEL=2000
;TYPE:Top surface
;WIDTH:0.43064
G1 F2696
G1 X3.446 Y-24.231 E.03507
SET_VELOCITY_LIMIT ACCEL=10000
G1 X2.897 Y-24.231 F30000
M73 P78 R0
SET_VELOCITY_LIMIT ACCEL=2000
G1 F2696
G1 X4.231 Y-22.897 E.05957
SET_VELOCITY_LIMIT ACCEL=10000
G1 X4.231 Y-22.349 F30000
SET_VELOCITY_LIMIT ACCEL=2000
G1 F2696
G1 X2.349 Y-24.231 E.08407
SET_VELOCITY_LIMIT ACCEL=10000
G1 X1.801 Y-24.231 F30000
SET_VELOCITY_LIMIT ACCEL=2000
G1 F2696
G1 X4.231 Y-21.801 E.10857
SET_VELOCITY_LIMIT ACCEL=10000
G1 X4.231 Y-21.253 F30000
M73 P79 R0
SET_VELOCITY_LIMIT ACCEL=2000
G1 F2696
G1 X1.253 Y-24.231 E.13307
SET_VELOCITY_LIMIT ACCEL=10000
G1 X.704 Y-24.231 F30000
SET_VELOCITY_LIMIT ACCEL=2000
G1 F2696
G1 X4.231 Y-20.704 E.15756
SET_VELOCITY_LIMIT ACCEL=10000
G1 X4.231 Y-20.156 F30000
M73 P80 R0
SET_VELOCITY_LIMIT ACCEL=2000
G1 F2696
G1 X.156 Y-24.231 E.18206
SET_VELOCITY_LIMIT ACCEL=10000
G1 X-.392 Y-24.231 F30000
M73 P81 R0
SET_VELOCITY_LIMIT ACCEL=2000
G1 F2696
G1 X4.231 Y-19.608 E.20656
SET_VELOCITY_LIMIT ACCEL=10000
G1 X4.231 Y-19.059 F30000
SET_VELOCITY_LIMIT ACCEL=2000
G1 F2696
G1 X-.941 Y-24.231 E.23106
SET_VELOCITY_LIMIT ACCEL=10000
G1 X-1.489 Y-24.231 F30000
M73 P82 R0
SET_VELOCITY_LIMIT ACCEL=2000
G1 F2696
G1 X4.231 Y-18.511 E.25556
SET_VELOCITY_LIMIT ACCEL=10000
G1 X4.231 Y-17.963 F30000
M73 P83 R0
SET_VELOCITY_LIMIT ACCEL=2000
G1 F2696
G1 X-2.037 Y-24.231 E.28006
SET_VELOCITY_LIMIT ACCEL=10000
G1 X-2.586 Y-24.231 F30000
M73 P84 R0
SET_VELOCITY_LIMIT ACCEL=2000
G1 F2696
G1 X4.231 Y-17.414 E.30456
SET_VELOCITY_LIMIT ACCEL=10000
G1 X4.231 Y-16.866 F30000
M73 P85 R0
SET_VELOCITY_LIMIT ACCEL=2000
G1 F2696
G1 X-3.134 Y-24.231 E.32906
SET_VELOCITY_LIMIT ACCEL=10000
G1 X-3.682 Y-24.231 F30000
M73 P86 R0
SET_VELOCITY_LIMIT ACCEL=2000
G1 F2696
G1 X4.231 Y-16.318 E.35356
SET_VELOCITY_LIMIT ACCEL=10000
G1 X4.231 Y-15.769 F30000
M73 P88 R0
SET_VELOCITY_LIMIT ACCEL=2000
G1 F2696
G1 X-4.231 Y-24.231 E.37806
SET_VELOCITY_LIMIT ACCEL=10000
G1 X-4.231 Y-23.682 F30000
M73 P89 R0
SET_VELOCITY_LIMIT ACCEL=2000
G1 F2696
G1 X3.682 Y-15.769 E.35356
SET_VELOCITY_LIMIT ACCEL=10000
G1 X3.134 Y-15.769 F30000
M73 P90 R0
SET_VELOCITY_LIMIT ACCEL=2000
G1 F2696
G1 X-4.231 Y-23.134 E.32906
SET_VELOCITY_LIMIT ACCEL=10000
G1 X-4.231 Y-22.586 F30000
M73 P91 R0
SET_VELOCITY_LIMIT ACCEL=2000
G1 F2696
G1 X2.586 Y-15.769 E.30456
SET_VELOCITY_LIMIT ACCEL=10000
G1 X2.037 Y-15.769 F30000
M73 P92 R0
SET_VELOCITY_LIMIT ACCEL=2000
G1 F2696
G1 X-4.231 Y-22.037 E.28006
SET_VELOCITY_LIMIT ACCEL=10000
G1 X-4.231 Y-21.489 F30000
M73 P93 R0
SET_VELOCITY_LIMIT ACCEL=2000
G1 F2696
G1 X1.489 Y-15.769 E.25556
SET_VELOCITY_LIMIT ACCEL=10000
G1 X.941 Y-15.769 F30000
M73 P94 R0
SET_VELOCITY_LIMIT ACCEL=2000
G1 F2696
G1 X-4.231 Y-20.941 E.23106
SET_VELOCITY_LIMIT ACCEL=10000
G1 X-4.231 Y-20.392 F30000
M73 P95 R0
SET_VELOCITY_LIMIT ACCEL=2000
G1 F2696
G1 X.392 Y-15.769 E.20656
SET_VELOCITY_LIMIT ACCEL=10000
G1 X-.156 Y-15.769 F30000
M73 P96 R0
SET_VELOCITY_LIMIT ACCEL=2000
G1 F2696
G1 X-4.231 Y-19.844 E.18206
SET_VELOCITY_LIMIT ACCEL=10000
G1 X-4.231 Y-19.296 F30000
M73 P97 R0
SET_VELOCITY_LIMIT ACCEL=2000
G1 F2696
G1 X-.704 Y-15.769 E.15756
SET_VELOCITY_LIMIT ACCEL=10000
G1 X-1.253 Y-15.769 F30000
SET_VELOCITY_LIMIT ACCEL=2000
G1 F2696
G1 X-4.231 Y-18.747 E.13306
SET_VELOCITY_LIMIT ACCEL=10000
G1 X-4.231 Y-18.199 F30000
M73 P98 R0
SET_VELOCITY_LIMIT ACCEL=2000
G1 F2696
G1 X-1.801 Y-15.769 E.10856
SET_VELOCITY_LIMIT ACCEL=10000
G1 X-2.349 Y-15.769 F30000
SET_VELOCITY_LIMIT ACCEL=2000
G1 F2696
G1 X-4.231 Y-17.651 E.08406
SET_VELOCITY_LIMIT ACCEL=10000
G1 X-4.231 Y-17.102 F30000
M73 P99 R0
SET_VELOCITY_LIMIT ACCEL=2000
G1 F2696
G1 X-2.898 Y-15.769 E.05956
SET_VELOCITY_LIMIT ACCEL=10000
G1 X-3.446 Y-15.769 F30000
SET_VELOCITY_LIMIT ACCEL=2000
G1 F2696
G1 X-4.231 Y-16.554 E.03506
; stop printing object Cube id:0 copy 0
G1 E-.8 F2100
;WIPE_START
G1 F12000
G1 X-3.446 Y-15.769
;WIPE_END
EXCLUDE_OBJECT_END NAME=Cube_id_0_copy_0
M106 S0
M106 P2 S0
;TYPE:Custom
; filament end gcode
END_PRINT
;total layers count = 3
M73 P100 R0
; EXECUTABLE_BLOCK_END

; filament used [mm] = 24.31
; filament used [cm3] = 0.06
; filament used [g] = 0.07
; filament cost = 0.00
; total filament used [g] = 0.07
; total filament cost = 0.00
; total layers count = 3
; estimated printing time (normal mode) = 22s
; estimated first layer printing time (normal mode) = 0.506725s

; CONFIG_BLOCK_START
; accel_to_decel_enable = 0
; accel_to_decel_factor = 50%
; activate_air_filtration = 0
; activate_chamber_temp_control = 0
; adaptive_bed_mesh_margin = 0
; adaptive_pressure_advance = 0
; adaptive_pressure_advance_bridges = 0
; adaptive_pressure_advance_model = "0,0,0\n0,0,0"
; adaptive_pressure_advance_overhangs = 0
; additional_cooling_fan_speed = 100
; align_infill_direction_to_model = 0
; alternate_extra_wall = 0
; auxiliary_fan = 1
; bbl_calib_mark_logo = 1
; bbl_use_printhost = 0
; bed_custom_model = 
; bed_custom_texture = 
; bed_exclude_area = 0x0
; bed_mesh_max = 99999,99999
; bed_mesh_min = -99999,-99999
; bed_mesh_probe_distance = 50,50
; before_layer_change_gcode = ;BEFORE_LAYER_CHANGE\n;[layer_z]
; best_object_pos = 0.5,0.4
; bottom_shell_layers = 3
; bottom_shell_thickness = 0
; bottom_solid_infill_flow_ratio = 1
; bottom_surface_density = 100%
; bottom_surface_pattern = monotonic
; bridge_acceleration = 50%
; bridge_angle = 0
; bridge_density = 100%
; bridge_flow = 1
; bridge_no_support = 0
; bridge_speed = 25
; brim_ears_detection_length = 1
; brim_ears_max_angle = 125
; brim_object_gap = 0.1
; brim_type = no_brim
; brim_width = 5
; calib_flowrate_topinfill_special_order = 0
; chamber_temperature = 0
; change_extrusion_role_gcode = 
; change_filament_gcode = 
; close_fan_the_first_x_layers = 1
; complete_print_exhaust_fan_speed = 80
; cool_plate_temp = 60
; cool_plate_temp_initial_layer = 55
; cooling_tube_length = 5
; cooling_tube_retraction = 91.5
; counterbore_hole_bridging = none
; curr_bed_type = High Temp Plate
; default_acceleration = 10000
; default_bed_type = 
; default_filament_colour = ""
; default_filament_profile = "Flashforge Generic PLA"
; default_jerk = 0
; default_junction_deviation = 0
; default_print_profile = 0.20mm Standard @Flashforge AD5M Pro 0.4 Nozzle
; deretraction_speed = 35
; detect_narrow_internal_solid_infill = 1
; detect_overhang_wall = 1
; detect_thin_wall = 0
; different_settings_to_system = exclude_object;gcode_label_objects;;best_object_pos;layer_change_gcode;machine_end_gcode;machine_start_gcode;print_host;print_host_webui;thumbnails;time_lapse_gcode
; disable_m73 = 0
; dont_filter_internal_bridges = disabled
; dont_slow_down_outer_wall = 0
; draft_shield = disabled
; during_print_exhaust_fan_speed = 60
; elefant_foot_compensation = 0.15
; elefant_foot_compensation_layers = 1
; emit_machine_limits_to_gcode = 1
; enable_arc_fitting = 0
; enable_extra_bridge_layer = disabled
; enable_filament_ramming = 1
; enable_long_retraction_when_cut = 0
; enable_overhang_bridge_fan = 1
; enable_overhang_speed = 1
; enable_pressure_advance = 1
; enable_prime_tower = 0
; enable_support = 0
; enforce_support_layers = 0
; eng_plate_temp = 60
; eng_plate_temp_initial_layer = 55
; ensure_vertical_shell_thickness = ensure_all
; exclude_object = 1
; extra_loading_move = -2
; extra_perimeters_on_overhangs = 0
; extra_solid_infills = 
; extruder_clearance_height_to_lid = 150
; extruder_clearance_height_to_rod = 27
; extruder_clearance_radius = 76
; extruder_colour = #00A899
; extruder_offset = 0x0
; extrusion_rate_smoothing_external_perimeter_only = 0
; fan_cooling_layer_time = 100
; fan_kickstart = 0
; fan_max_speed = 100
; fan_min_speed = 100
; fan_speedup_overhangs = 1
; fan_speedup_time = 0
; filament_colour = #00A899
; filament_cooling_final_speed = 3.4
; filament_cooling_initial_speed = 2.2
; filament_cooling_moves = 4
; filament_cost = 20
; filament_density = 1.24
